!!!COM: Palestrina, Giovanni Perluigi da
!!!OPR: Quinti toni
!!!OTL: Kyrie
**kern	**kern	**kern	**kern	**kern	**kern
*Ibass	*Itenor	*Itenor	*Icalto	*Icant	*Icant
!Bassus	!Tenor 2	!Tenor 1	!Altus	!Cantus 2	!Cantus 1
*clefF4	*clefGv2	*clefGv2	*clefG2	*clefG2	*clefG2
*k[b-]	*k[b-]	*k[b-]	*k[b-]	*k[b-]	*k[b-]
*F:ion	*F:ion	*F:ion	*F:ion	*F:ion	*F:ion
*M4/2	*M4/2	*M4/2	*M4/2	*M4/2	*M4/2
=1	=1	=1	=1	=1	=1
0r	0r	0r	0r	0r	1.cc
.	.	.	.	.	2cc
=2	=2	=2	=2	=2	=2
0r	0r	0r	0r	1.cc	4a
.	.	.	.	.	4g
.	.	.	.	.	4a
.	.	.	.	.	4b-
.	.	.	.	.	4cc
.	.	.	.	.	4b-
.	.	.	.	2cc	4a
.	.	.	.	.	4g
=3	=3	=3	=3	=3	=3
0r	0r	0r	2r	4a	2.f
.	.	.	.	4g	.
.	.	.	1f	4a	.
.	.	.	.	4b-	4g
.	.	.	.	4cc	4a
.	.	.	.	4b-	4b-
.	.	.	2f	4a	2cc
.	.	.	.	4g	.
=4	=4	=4	=4	=4	=4
0r	0r	0r	4d	2.f	1dd
.	.	.	4c	.	.
.	.	.	4d	.	.
.	.	.	4e	4g	.
.	.	.	4f	2a	2cc
.	.	.	4e	.	.
.	.	.	4d	[2b-	[2dd
.	.	.	4c	.	.
=5	=5	=5	=5	=5	=5
0r	1r	0r	4B-	4b-]	4dd]
.	.	.	4c	4a	4ee
.	.	.	2d	2f	1ff
.	2r	.	1c	1g	.
.	[2c	.	.	.	4ee
.	.	.	.	.	4dd
=6	=6	=6	=6	=6	=6
0r	2c]	1r	1g	2r	1ee
.	2c	.	.	1cc	.
.	4A	[1c	2.a	.	1ee
.	4G	.	.	.	.
.	4A	.	.	2cc	.
.	4B-	.	8g	.	.
.	.	.	8f	.	.
=7	=7	=7	=7	=7	=7
1r	4c	2c]	1e	4a	2r
.	4B-	.	.	4g	.
.	4A	2c	.	4a	1cc
.	4G	.	.	4b-	.
2r	2.F	4A	1a	4cc	.
.	.	4G	.	4b-	.
[2F	.	4A	.	4a	2cc
.	4G	4B-	.	4g	.
=8	=8	=8	=8	=8	=8
2F]	4A	4c	2r	1f	1a
.	4B-	4B-	.	.	.
2F	2c	4A	1f	.	.
.	.	4G	.	.	.
4D	1d	2.F	.	1ff	2a
4C	.	.	.	.	.
4D	.	.	2f	.	[2a
4E	.	4G	.	.	.
=9	=9	=9	=9	=9	=9
4F	2c	2A	1f	2ff	4a]
4E	.	.	.	.	4g
4D	2.d	2.B-	.	2ff	4f
4C	.	.	.	.	4e
2BB-	.	.	2r	1dd	1f
.	4e	4A	.	.	.
2D	[2f	2F	2d	.	.
=10	=10	=10	=10	=10	=10
1C	2f]	1G	2g	2ee	1cc
.	2e	.	2g	2.cc	.
[1F	[1f	1F	2c	.	1a
.	.	.	.	4b-	.
.	.	.	2cc	4a	.
.	.	.	.	4g	.
=11	=11	=11	=11	=11	=11
1F]	1f]	2r	2.cc	1a	2r
.	.	2f	.	.	2cc
.	.	.	4b-	.	.
1r	1r	2f	2a	1r	2cc
.	.	2e	2g	.	2cc
=12	=12	=12	=12	=12	=12
0r	0r	2d	2f	1r	2b-
.	.	2c	2e	.	2a
.	.	1d	1f	2r	2b-
.	.	.	.	2ff	[2a
=13	=13	=13	=13	=13	=13
0r	0r	1c	2cc	2ff	2a]
.	.	.	2c	2ee	4g
.	.	.	.	.	4f
.	.	2B-	2d	2dd	2g
.	.	2A	2e	2cc	[2a
=14	=14	=14	=14	=14	=14
1r	1r	1B-	2.d	1dd	2a]
.	.	.	.	.	2g
.	.	.	4e	.	.
1F	2r	2A	1f	2.cc	2.a
.	2c	2A	.	.	.
.	.	.	.	4b-	4b-
=15	=15	=15	=15	=15	=15
2F	2c	2F	0r	2a	1cc
2E	2c	2G	.	2g	.
2D	2d	2A	.	2f	1r
2C	2e	[2c	.	[2a	.
=16	=16	=16	=16	=16	=16
1D	1f	2c]	1r	2a]	2r
.	.	2B	.	4g	2ff
.	.	.	.	4f	.
1C	2r	1c	2r	2a	2ff
.	2g	.	2cc	2g	2ee
=17	=17	=17	=17	=17	=17
1G	2.g	0r	2cc	0r	1dd
.	.	.	2b-	.	.
.	4f	.	.	.	.
2A	2e	.	2a	.	2cc
2B-	2d	.	2g	.	[2dd
=18	=18	=18	=18	=18	=18
2A	2e	1r	1a	1r	4dd]
.	.	.	.	.	4cc
2F	2f	.	.	.	1cc
1G	1d	2r	2.g	1dd	.
.	.	2g	.	.	2b
.	.	.	4f	.	.
=19	=19	=19	=19	=19	=19
2r	1c	2.g	2.e	2.ee	1cc
2c	.	.	.	.	.
.	.	4f	4d	4ff	.
2c	1r	2e	2c	2gg	1r
2B-	.	2d	2d	2g	.
=20	=20	=20	=20	=20	=20
2A	0r	2e	4c	2a	1r
.	.	.	4A	.	.
2G	.	2.g	2d	2b-	.
1A	.	.	1c	1cc	2r
.	.	4f	.	.	.
.	.	[2f	.	.	2cc
=21	=21	=21	=21	=21	=21
1G	1r	4f]	1g	1r	2cc
.	.	8e	.	.	.
.	.	8d	.	.	.
.	.	2e	.	.	2b-
1F	[1c	1f	2a	2r	1a
.	.	.	2f	2ff	.
=22	=22	=22	=22	=22	=22
1C	2c]	0r	1cc	2ff	1g
.	2c	.	.	2ee	.
2D	1A	.	2r	2dd	[1f
2F	.	.	2f	2cc	.
=23	=23	=23	=23	=23	=23
1BB-	1B-	2r	4d	1dd	1f]
.	.	.	4c	.	.
.	.	2B-	4d	.	.
.	.	.	4e	.	.
1F	[1c	2B-	1f	1cc	2r
.	.	2A	.	.	2f
=24	=24	=24	=24	=24	=24
0C	0c]	2G	2e	0cc	2g
.	.	2F	1f	.	2a
.	.	1G	.	.	1g
.	.	.	2e	.	.
=25	=25	=25	=25	=25	=25
0F	0A	0F	0f	0cc	0a
=26	=26	=26	=26	=26	=26
1r	0r	0f	0r	0r	0r
1F	.	.	.	.	.
=27	=27	=27	=27	=27	=27
2G	0r	1e	0r	0r	0r
2A	.	.	.	.	.
2B-	.	2d	.	.	.
4A	.	[2f	.	.	.
4G	.	.	.	.	.
=28	=28	=28	=28	=28	=28
2F	0r	2f]	0r	0r	0r
2.A	.	4e	.	.	.
.	.	4d	.	.	.
.	.	2c	.	.	.
4G	.	.	.	.	.
4F	.	[2d	.	.	.
4E	.	.	.	.	.
=29	=29	=29	=29	=29	=29
2.F	1r	4d]	0r	0r	0ff
.	.	4c	.	.	.
.	.	2.c	.	.	.
4E	.	.	.	.	.
1D	1f	.	.	.	.
.	.	4B	.	.	.
.	.	4B	.	.	.
.	.	4A	.	.	.
=30	=30	=30	=30	=30	=30
1C	2g	2c	0r	0r	1ee
.	2a	2c	.	.	.
1r	2b-	2B-	.	.	2dd
.	4a	[2d	.	.	[2ff
.	4g	.	.	.	.
=31	=31	=31	=31	=31	=31
0r	2f	2d]	0r	0r	2ff]
.	2.a	4c	.	.	4ee
.	.	4B-	.	.	4dd
.	.	2A	.	.	2cc
.	4g	.	.	.	.
.	4f	2B-	.	.	[2dd
.	4e	.	.	.	.
=32	=32	=32	=32	=32	=32
0r	2.f	1F	1r	0ff	4dd]
.	.	.	.	.	4cc
.	.	.	.	.	1cc
.	4e	.	.	.	.
.	1d	1r	1f	.	.
.	.	.	.	.	2b
=33	=33	=33	=33	=33	=33
0r	2c	0r	2g	1ee	1cc
.	2c	.	2a	.	.
.	2B-	.	2b-	2dd	2.f
.	[2d	.	4a	[2ff	.
.	.	.	4g	.	4g
=34	=34	=34	=34	=34	=34
0r	2d]	0r	2f	2ff]	4a
.	.	.	.	.	4b-
.	4c	.	2.a	4ee	1cc
.	4B-	.	.	4dd	.
.	2A	.	.	2cc	.
.	.	.	4g	.	.
.	2B-	.	4f	[2dd	2b-
.	.	.	4e	.	.
=35	=35	=35	=35	=35	=35
0r	1F	0r	2.f	4dd]	1a
.	.	.	.	4cc	.
.	.	.	.	1cc	.
.	.	.	4e	.	.
.	1G	.	1d	.	1g
.	.	.	.	2b	.
=36	=36	=36	=36	=36	=36
2.F	0c	2r	2f	1cc	2.a
.	.	1f	1a	.	.
4G	.	.	.	.	4b-
4A	.	.	.	2r	1cc
4B-	.	.	.	.	.
2c	.	2e	2g	[2cc	.
=37	=37	=37	=37	=37	=37
2A	0r	2c	2f	2cc]	0r
2G	.	2d	2.g	2b-	.
2.c	.	2e	.	1g	.
.	.	.	4f	.	.
.	.	[2g	4e	.	.
4B-	.	.	4d	.	.
=38	=38	=38	=38	=38	=38
2A	0r	4g]	2c	1a	0r
.	.	4f	.	.	.
2F	.	1f	2d	.	.
1G	.	.	1B-	1b-	.
.	.	2e	.	.	.
=39	=39	=39	=39	=39	=39
2.F	0r	2f	2c	2a	2r
.	.	2a	4f	2cc	1ff
4E	.	.	4g	.	.
2D	.	2f	4a	2dd	.
.	.	.	4b-	.	.
2C	.	2g	2cc	2ee	2ee
=40	=40	=40	=40	=40	=40
2F	1r	2a	2a	1ff	2cc
2D	.	2f	2b-	.	2dd
1C	2r	1g	1cc	2r	1ee
.	4c	.	.	[2cc	.
.	4d	.	.	.	.
=41	=41	=41	=41	=41	=41
0r	4e	2r	1g	2cc]	1.gg
.	4f	.	.	.	.
.	2g	2G	.	2b-	.
.	2e	2c	2r	2g	.
.	2f	2F	[2cc	2a	2ff
=42	=42	=42	=42	=42	=42
0r	1B-	1G	4cc]	1b-	2dd
.	.	.	4b-	.	.
.	.	.	1b-	.	2ee
.	2r	1F	.	1cc	1ff
.	2f	.	2a	.	.
=43	=43	=43	=43	=43	=43
2.BB-	2d	1B-	2b-	1dd	2r
.	2B-	.	1b-	.	1dd
4C	.	.	.	.	.
4D	1f	2r	.	2r	.
4E	.	.	.	.	.
2F	.	2c	2a	[2ff	2cc
=44	=44	=44	=44	=44	=44
2D	2r	2d	2f	2ff]	2b-
2C	2c	2e	2g	2ee	2.cc
2.F	2A	1f	[1a	2cc	.
.	.	.	.	.	4f
.	2F	.	.	2dd	[2ff
4G	.	.	.	.	.
=45	=45	=45	=45	=45	=45
4A	1c	0r	2a]	2cc	2ff]
4B-	.	.	.	.	.
2c	.	.	2g	1cc	2ee
2A	1r	.	4f	.	2cc
.	.	.	4e	.	.
2G	.	.	2g	2b-	2dd
=46	=46	=46	=46	=46	=46
0c	2r	2r	2e	2g	2ee
.	1f	4F	2c	1a	2ff
.	.	4G	.	.	.
.	.	4A	2r	.	4cc
.	.	4B-	.	.	4dd
.	2e	2c	[2cc	2g	4ee
.	.	.	.	.	8dd
.	.	.	.	.	8ee
=47	=47	=47	=47	=47	=47
0r	2c	2A	2cc]	1f	2ff
.	2d	2B-	2b-	.	2.dd
.	2e	2c	2g	1r	.
.	.	.	.	.	4cc
.	2f	2F	2a	.	[2cc
=48	=48	=48	=48	=48	=48
1r	1d	1G	1g	1r	2cc]
.	.	.	.	.	2b
2.F	1c	2.A	2r	2r	[1cc
.	.	.	[2a	[2ff	.
4G	.	4B-	.	.	.
=49	=49	=49	=49	=49	=49
4A	2r	1c	2a]	2ff]	1cc]
4B-	.	.	.	.	.
2c	2g	.	2g	2ee	.
1A	4a	2F	2f	1cc	2r
.	4g	.	.	.	.
.	4f	[2f	2a	.	2cc
.	4e	.	.	.	.
=50	=50	=50	=50	=50	=50
2B-	2d	2f]	[0g	2dd	2b-
1c	4c	2e	.	1ee	2g
.	4d	.	.	.	.
.	4e	2c	.	.	1gg
.	4f	.	.	.	.
2B	[2g	2d	.	[2dd	.
=51	=51	=51	=51	=51	=51
1c	2g]	1e	0g]	4dd]	2.ee
.	.	.	.	4cc	.
.	2c	.	.	1cc	.
.	.	.	.	.	4ff
1G	1d	1d	.	.	1gg
.	.	.	.	2b	.
=52	=52	=52	=52	=52	=52
0C	0e	0c	0g	0cc	0ee
=53	=53	=53	=53	=53	=53
0r	1r	0r	1g	0r	0r
.	1c	.	2g	.	.
.	.	.	2g	.	.
=54	=54	=54	=54	=54	=54
0r	2c	0r	2.cc	2r	0r
.	2c	.	.	2cc	.
.	.	.	4b-	.	.
.	2.f	.	2.a	2cc	.
.	.	.	.	2cc	.
.	4e	.	4g	.	.
=55	=55	=55	=55	=55	=55
0r	2.d	0r	2f	2.ff	0r
.	.	.	4d	.	.
.	4c	.	4e	4ee	.
.	2B-	.	4f	2dd	.
.	.	.	4g	.	.
.	2A	.	[2a	[2cc	.
=56	=56	=56	=56	=56	=56
0r	4F	0r	4a]	4cc]	1cc
.	4G	.	4g	4b-	.
.	4A	.	1f	2a	.
.	4B-	.	.	.	.
.	1c	.	.	2.g	2cc
.	.	.	2e	.	2cc
.	.	.	.	4a	.
=57	=57	=57	=57	=57	=57
0r	1.B-	0r	2d	4b-	2.ff
.	.	.	.	4cc	.
.	.	.	2.b-	4dd	.
.	.	.	.	4ee	4ee
.	.	.	.	2ff	2dd
.	.	.	4a	.	.
.	2c	.	2g	2ee	[2cc
=58	=58	=58	=58	=58	=58
0r	1d	1r	1f	1ff	2cc]
.	.	.	.	.	2b
.	1c	2r	2.g	1ee	2.cc
.	.	2c	.	.	.
.	.	.	4f	.	8b-
.	.	.	.	.	8a
=59	=59	=59	=59	=59	=59
1r	0r	2c	2.e	2r	1g
.	.	2c	.	2cc	.
.	.	.	4d	.	.
1F	.	2.f	1c	2cc	[1a
.	.	.	.	2cc	.
.	.	4e	.	.	.
=60	=60	=60	=60	=60	=60
2F	2r	2d	0r	2.ff	1a]
2F	2f	2c	.	.	.
.	.	.	.	4ee	.
2.B-	2f	2d	.	2.dd	1r
.	2f	4B-	.	.	.
4A	.	4c	.	4cc	.
=61	=61	=61	=61	=61	=61
2G	2g	4d	0r	2b-	0r
.	.	4e	.	.	.
2F	2c	1f	.	1a	.
1B-	1d	.	.	.	.
.	.	4e	.	2g	.
.	.	4d	.	.	.
=62	=62	=62	=62	=62	=62
1A	1e	2c	2r	2a	2r
.	.	2A	2a	2cc	2ee
1r	1r	1r	2a	2cc	2ee
.	.	.	2f	2a	2ff
=63	=63	=63	=63	=63	=63
0r	0r	0r	2g	2b-	2dd
.	.	.	2a	2cc	2cc
.	.	.	[1g	4dd	4b-
.	.	.	.	4cc	4a
.	.	.	.	4b-	4g
.	.	.	.	4cc	4a
=64	=64	=64	=64	=64	=64
0r	0r	0r	2g]	4dd	4b-
.	.	.	.	4ee	4cc
.	.	.	2d	2ff	2.dd
.	.	.	2a	2ee	.
.	.	.	.	.	4cc
.	.	.	2a	4dd	[2cc
.	.	.	.	4cc	.
=65	=65	=65	=65	=65	=65
1r	1r	1r	1g	1dd	2cc]
.	.	.	.	.	2b
2r	2r	2r	1c	2.cc	[1cc
2A	2c	2e	.	.	.
.	.	.	.	4b-	.
=66	=66	=66	=66	=66	=66
2A	2c	2e	0r	1a	1cc]
2F	2A	2f	.	.	.
2G	2B-	2d	.	2g	1r
2A	2c	2c	.	2f#	.
=67	=67	=67	=67	=67	=67
1.G	4d	4B-	1r	1g	0r
.	4c	4A	.	.	.
.	4B-	4G	.	.	.
.	4c	4A	.	.	.
.	4d	4B-	2r	1r	.
.	4e	4c	.	.	.
2D	2f	2d	2a	.	.
=68	=68	=68	=68	=68	=68
2A	2e	2c	2a	0r	0r
2.B-	2.d	4B-	2f	.	.
.	.	4c	.	.	.
.	.	4d	2g	.	.
4A	4c	4e	.	.	.
2F	[2c	2f	2a	.	.
=69	=69	=69	=69	=69	=69
1G	2c]	0d	0g	1r	2r
.	4B-	.	.	.	2dd
.	4A	.	.	.	.
[1G	2B-	.	.	2r	2dd
.	2G	.	.	2dd	[2b-
=70	=70	=70	=70	=70	=70
1G]	1d	1g	2r	2dd	4b-]
.	.	.	.	.	4cc
.	.	.	2g	2b-	2dd
1r	1r	1r	2f	2cc	2a
.	.	.	2d	2dd	2b-
=71	=71	=71	=71	=71	=71
0r	0r	2r	2.f	2cc	2.a
.	.	2d	.	2.ff	.
.	.	.	4g	.	4g
.	.	2d	2a	.	2f
.	.	.	.	4ee	.
.	.	2B-	2b-	2dd	2ff
=72	=72	=72	=72	=72	=72
0r	1r	2c	2g	2cc	2ee
.	.	2d	2f	2b-	1ff
.	2r	1c	1g	2.cc	.
.	2c	.	.	.	2ee
.	.	.	.	4b-	.
=73	=73	=73	=73	=73	=73
2r	2c	1F	2r	1a	0ff
2D	2A	.	2f	.	.
2D	2.B-	2r	2f	1dd	.
2BB-	.	2f	2d	.	.
.	4A	.	.	.	.
=74	=74	=74	=74	=74	=74
2C	2G	2e	2e	2cc	0r
2D	2F	2d	1f	2b-	.
1C	1G	4e	.	1cc	.
.	.	4d	.	.	.
.	.	4c	2e	.	.
.	.	4B-	.	.	.
=75	=75	=75	=75	=75	=75
2r	[0F	2A	[0f	2cc	2r
1BB-	.	2B-	.	2.b-	2dd
.	.	1d	.	.	2dd
.	.	.	.	4a	.
2BB-	.	.	.	4f	2b-
.	.	.	.	4g	.
=76	=76	=76	=76	=76	=76
2F	0F]	2c	0f]	2a	2cc
2BB-	.	2B-	.	1b-	2dd
1F	.	2c	.	.	1cc
.	.	4f	.	2a	.
.	.	4e	.	.	.
=77	=77	=77	=77	=77	=77
0BB-	[0F	4d	[0f	0dd	0b-
.	.	4c	.	.	.
.	.	4B-	.	.	.
.	.	4A	.	.	.
.	.	1B-	.	.	.
=78	=78	=78	=78	=78	=78
0F	0F]	0c	0f]	0cc	0a
==	==	==	==	==	==
*-	*-	*-	*-	*-	*-
!!!CDT: 1525/^1526/-1594/2/2
!!!OCY: Italia
!!!AGN: Mass (Free)
!!!AST: renaissance, vocal
!!!ASW: Motet 1532 (Penet)
!!!PWK: Masses, Book 10
!!!RNB: Cadence finals: C
!!!YOR: Le Opere Complete, v. 27, p. 120
!!!YOO: Rome, Italy: Fratelli Scalera
!!!END: 1992//
!!!EED: John Miller
!!!YEC: Copyright 2000, John Miller
!!!YEN: United States of America
!!!YEM: Rights to all derivative electronic formats reserved.
!!!YEM: Refer to licensing agreement for further details.
!!!YEM: This file must be accompanied by the licensing agreement.
!!!YEM: A copy of the licensing agreement may be found at http://www.music-cog.ohio-state.edu/HumdrumDatabases/Palestrina/license.txt
!!!EMD: converted to Humdrum by Bret Aarden
